svg/u1f3a3.svg

<svg viewBox="0 0 128 128" xmlns="http://www.w3.org/2000/svg">
  <path d="M68.54,16.14c0,0-9.64,4.87-11.85,13.63c-2.22,8.75,1.22,16.06-0.44,20.83s-3.77,6.43-4.54,7.64 c-0.78,1.22-6.2,5.32-6.2,5.32l3.66,2.44c0,0,9.42-8.2,10.64-15.4c1.17-6.92-1.55-14.73,0.22-20.16c1.73-5.3,5.87-8.75,9.31-10.97 C73.22,16.94,68.54,16.14,68.54,16.14z" fill="#BBCCD3"/>
  <path d="M26.75,97.54c-1.07-0.29-6.23,1.75-10.62,3.12s-7.6,1.95-7.5,2.92c0.1,0.97,3.21,2.82,7.11,3.31 s6.33-0.97,6.33-0.97s0.39,2.24,1.46,4.68c1.46,3.31,4.58,6.14,5.75,5.65c0.81-0.34-0.88-14.22-0.97-15.68S26.75,97.54,26.75,97.54z " fill="#1966A4"/>
  <path d="M27.43,65.79c0,0-0.68-0.58-1.95-0.58c-1.27,0-11.1,3.6-11.1,5.16c0,1.56,1.56,6.23,3.41,10.23 s5.75,11.1,5.75,11.1L27.43,65.79z" fill="#1966A4"/>
  <radialGradient id="SVGID_1_" cx="10.9406" cy="62.0372" gradientUnits="userSpaceOnUse" r="46.8265">
    <stop offset="0.7756" stop-color="#1383BB"/>
    <stop offset="0.7983" stop-color="#208BC0"/>
    <stop offset="0.8402" stop-color="#42A0CE"/>
    <stop offset="0.8963" stop-color="#79C1E3"/>
    <stop offset="0.9177" stop-color="#90CFEC"/>
  </radialGradient>
  <path d="M23.94,102.79c0,0-5.27-19.47-1.18-31.99c3.5-10.69,12.61-13.97,16.5-14.75 c3.9-0.78,9.89,0.09,9.89,0.09l1.17,0.78l0.49,5.84l4.97-1.85c0,0,5.86,12.44-1.95,25.23C43.49,103.07,23.84,103.08,23.94,102.79z" fill="url(#SVGID_1_)"/>
  <path d="M40.1,77.48c-0.86,0.86-1.85,5.26-1.85,9.74c0,4.48-0.29,7.11,0.58,7.4s5.55-4.77,6.43-10.91 S41.26,76.31,40.1,77.48z" fill="#1966A4"/>
  <path d="M48.86,56.13c0,0,0.8-1.08,1.67-0.98s1.38,0.87,1.38,1.33c0,0.46-0.1,4.8-0.1,4.8 s2.36-1.44,2.81-1.58c0.82-0.26,1.79,0.66,1.63,1.58s-4.19,3.88-5.87,3.17c-1.37-0.58-1.58-3.06-1.58-4.44S48.86,56.13,48.86,56.13z " fill="#1966A4"/>
  <path d="M40.21,64.5c-0.87,0.82-1.17,2.81,0.36,3.98c1.17,0.9,2.95,0.36,3.63-0.46 c0.97-1.17,0.36-3.22-0.72-3.88C42.4,63.48,41.03,63.73,40.21,64.5z" fill="#292D26"/>
  <path d="M109.27,78.4l-8.56-2.74c0,0,21.94-53.64,4-63.26c-17.24-9.25-32.51,6.07-34.11,7.22 c-1.6,1.14-3.12,1.01-3.58,0.21c-0.46-0.8-1.03-2.74,2.51-5.71s16.38-16.13,36.08-8.22c19.07,7.65,12.76,36.21,12.22,41.34 C116.81,56.94,109.27,78.4,109.27,78.4z" fill="#40717B"/>
  <path d="M100.59,73.04c1.11-1.36,2.07-1.93,6.41-0.33c4.34,1.6,4.11,3.84,3.64,5.13 c-0.29,0.78-3.49,11.97-8.4,24.18s-8.39,18.87-9.07,19.78s-2.51,2.74-6.85,1.48c-4.34-1.26-4.48-5.91-4-7.42 c1.03-3.2,8.79-18.16,12.22-27.52S99.48,74.4,100.59,73.04z" fill="#E3C08C"/>
  <path d="M102.1,79.87c-1.77-0.59-2.91,0.87-4.36,4.65c-1.45,3.78-2.91,6.59-2.91,6.59s-0.97,3.39,1.26,4.16 s3.24-1.53,3.97-3.39c1.07-2.71,2.61-6.3,3.1-7.94C103.65,82.29,103.84,80.45,102.1,79.87z" fill="#40727B"/>
  <path d="M87.18,87.71l-10.85,1.45c0,0-0.73,1.67-1.42,3.71c-0.78,0.39-2.44,1.24-4,2.1 c-2.13,1.16-3.78,2.03-3.78,2.03h-3.78l-0.86,5.5c0,0,1.85,0.97,4,0.92c1.73-0.04,5.63-3,7.25-4.35c0.03,0.14,0.07,0.28,0.1,0.41 c0.43,1.89,1.95,2.8,1.95,2.8s-2.7,5.25-1.99,7.12c0.53,1.38,3.64,3.41,6.74,3.29c2.32-0.1,4.65-6.85,4.65-6.85s3.97,0.57,6.1-3.4 s2.95-6.75,2.95-6.75L87.18,87.71z" fill="#40727B"/>
  <path d="M57.75,97.24c-0.87,2.31,0,4.33,2.75,5.49s4.91,0.64,4.91,0.64s-1.58-2.4-0.53-4.27 c0.94-1.67,2.26-2.1,2.26-2.1s-2.01-2.53-5.18-2.64C60.26,94.32,58.45,95.37,57.75,97.24z" fill="#F5A055"/>
  <path d="M89.89,82.16c-6.2-2.35-9.35-0.06-10.64,1.29c-1.29,1.34-2.92,5.72-2.92,5.72s4.43,0.51,9.36,2.47 c4.88,1.94,8.41,4.49,8.41,4.49s2.38-5.24,1.42-8.44C94.86,85.47,93.75,83.62,89.89,82.16z" fill="#6AA5AD"/>
</svg>

<svg viewBox="0 0 128 128" xmlns="http://www.w3.org/2000/svg">
  <defs>
    <radialGradient id="SVGID_1_" cx="10.9406" cy="62.0372" gradientUnits="userSpaceOnUse" r="46.8265">
      <stop offset="0.7756" stop-color="#1383BB"/>
      <stop offset="0.7983" stop-color="#208BC0"/>
      <stop offset="0.8402" stop-color="#42A0CE"/>
      <stop offset="0.8963" stop-color="#79C1E3"/>
      <stop offset="0.9177" stop-color="#90CFEC"/>
    </radialGradient>
  </defs>
  <path d="M68.54,16.14 C68.54,16.14 58.9,21.01 56.69,29.77 C54.47,38.52 57.91,45.83 56.25,50.6 C54.59,55.37 52.48,57.03 51.71,58.24 C50.93,59.46 45.51,63.56 45.51,63.56 L49.17,66 C49.17,66 58.59,57.8 59.81,50.6 C60.98,43.68 58.26,35.87 60.03,30.44 C61.76,25.14 65.9,21.69 69.34,19.47 C73.22,16.94 68.54,16.14 68.54,16.14 Z" fill="#BBCCD3"/>
  <path d="M26.75,97.54 C25.68,97.25 20.52,99.29 16.13,100.66 C11.74,102.03 8.53,102.61 8.63,103.58 C8.73,104.55 11.84,106.4 15.74,106.89 C19.64,107.38 22.07,105.92 22.07,105.92 C22.07,105.92 22.46,108.16 23.53,110.6 C24.99,113.91 28.11,116.74 29.28,116.25 C30.09,115.91 28.4,102.03 28.31,100.57 C28.22,99.11 26.75,97.54 26.75,97.54 Z" fill="#1966A4"/>
  <path d="M27.43,65.79 C27.43,65.79 26.75,65.21 25.48,65.21 C24.21,65.21 14.38,68.81 14.38,70.37 C14.38,71.93 15.94,76.6 17.79,80.6 C19.64,84.6 23.54,91.7 23.54,91.7 L27.43,65.79 Z" fill="#1966A4"/>
  <path d="M23.94,102.79 C23.94,102.79 18.67,83.32 22.76,70.8 C26.26,60.11 35.37,56.83 39.26,56.05 C43.16,55.27 49.15,56.14 49.15,56.14 L50.32,56.92 L50.81,62.76 L55.78,60.91 C55.78,60.91 61.64,73.35 53.83,86.14 C43.49,103.07 23.84,103.08 23.94,102.79 Z" fill="url(#SVGID_1_)"/>
  <path d="M40.1,77.48 C39.24,78.34 38.25,82.74 38.25,87.22 C38.25,91.7 37.96,94.33 38.83,94.62 C39.7,94.91 44.38,89.85 45.26,83.71 C46.14,77.57 41.26,76.31 40.1,77.48 Z" fill="#1966A4"/>
  <path d="M48.86,56.13 C48.86,56.13 49.66,55.05 50.53,55.15 C51.4,55.25 51.91,56.02 51.91,56.48 C51.91,56.94 51.81,61.28 51.81,61.28 C51.81,61.28 54.17,59.84 54.62,59.7 C55.44,59.44 56.41,60.36 56.25,61.28 C56.09,62.2 52.06,65.16 50.38,64.45 C49.01,63.87 48.8,61.39 48.8,60.01 C48.8,58.63 48.86,56.13 48.86,56.13 Z" fill="#1966A4"/>
  <path d="M40.21,64.5 C39.34,65.32 39.04,67.31 40.57,68.48 C41.74,69.38 43.52,68.84 44.2,68.02 C45.17,66.85 44.56,64.8 43.48,64.14 C42.4,63.48 41.03,63.73 40.21,64.5 Z" fill="#292D26"/>
  <path d="M109.27,78.4 L100.71,75.66 C100.71,75.66 122.65,22.02 104.71,12.4 C87.47,3.15 72.2,18.47 70.6,19.62 C69,20.76 67.48,20.63 67.02,19.83 C66.56,19.03 65.99,17.09 69.53,14.12 C73.07,11.15 85.91,-2.01 105.61,5.9 C124.68,13.55 118.37,42.11 117.83,47.24 C116.81,56.94 109.27,78.4 109.27,78.4 Z" fill="#40717B"/>
  <path d="M100.59,73.04 C101.7,71.68 102.66,71.11 107,72.71 C111.34,74.31 111.11,76.55 110.64,77.84 C110.35,78.62 107.15,89.81 102.24,102.02 C97.33,114.23 93.85,120.89 93.17,121.8 C92.49,122.71 90.66,124.54 86.32,123.28 C81.98,122.02 81.84,117.37 82.32,115.86 C83.35,112.66 91.11,97.7 94.54,88.34 C97.97,78.98 99.48,74.4 100.59,73.04 Z" fill="#E3C08C"/>
  <path d="M102.1,79.87 C100.33,79.28 99.19,80.74 97.74,84.52 C96.29,88.3 94.83,91.11 94.83,91.11 C94.83,91.11 93.86,94.5 96.09,95.27 C98.32,96.04 99.33,93.74 100.06,91.88 C101.13,89.17 102.67,85.58 103.16,83.94 C103.65,82.29 103.84,80.45 102.1,79.87 Z" fill="#40727B"/>
  <path d="M87.18,87.71 L76.33,89.16 C76.33,89.16 75.6,90.83 74.91,92.87 C74.13,93.26 72.47,94.11 70.91,94.97 C68.78,96.13 67.13,97 67.13,97 L63.35,97 L62.49,102.5 C62.49,102.5 64.34,103.47 66.49,103.42 C68.22,103.38 72.12,100.42 73.74,99.07 C73.77,99.21 73.81,99.35 73.84,99.48 C74.27,101.37 75.79,102.28 75.79,102.28 C75.79,102.28 73.09,107.53 73.8,109.4 C74.33,110.78 77.44,112.81 80.54,112.69 C82.86,112.59 85.19,105.84 85.19,105.84 C85.19,105.84 89.16,106.41 91.29,102.44 C93.42,98.47 94.24,95.69 94.24,95.69 L87.18,87.71 Z" fill="#40727B"/>
  <path d="M57.75,97.24 C56.88,99.55 57.75,101.57 60.5,102.73 C63.25,103.89 65.41,103.37 65.41,103.37 C65.41,103.37 63.83,100.97 64.88,99.1 C65.82,97.43 67.14,97 67.14,97 C67.14,97 65.13,94.47 61.96,94.36 C60.26,94.32 58.45,95.37 57.75,97.24 Z" fill="#F5A055"/>
  <path d="M89.89,82.16 C83.69,79.81 80.54,82.1 79.25,83.45 C77.96,84.79 76.33,89.17 76.33,89.17 C76.33,89.17 80.76,89.68 85.69,91.64 C90.57,93.58 94.1,96.13 94.1,96.13 C94.1,96.13 96.48,90.89 95.52,87.69 C94.86,85.47 93.75,83.62 89.89,82.16 Z" fill="#6AA5AD"/>
</svg>
